icon-themes/breeze_svg/cmd/lc_alignup.svg

<svg viewBox="0 0 24 24" xmlns="http://www.w3.org/2000/svg"><path d="m4 4v1h16v-1zm0 3v6h6v-6zm10 0v13h6v-13zm-9 1h4v4h-4zm10 0h4v11h-4z" fill="#4d4d4d"/></svg>

<svg xmlns="http://www.w3.org/2000/svg" viewBox="0 0 24 24">
 <path 
     style="fill:#4d4d4d" 
     d="M 4 4 L 4 5 L 20 5 L 20 4 L 4 4 z M 4 7 L 4 13 L 10 13 L 10 7 L 4 7 z M 14 7 L 14 20 L 20 20 L 20 7 L 14 7 z M 5 8 L 9 8 L 9 12 L 5 12 L 5 8 z M 15 8 L 19 8 L 19 19 L 15 19 L 15 8 z "
     />
 </svg>
